!!!OTL: The Mantle of Green
!!!ONM: 79.
**kern
*clefG2
*k[b-]
*d:
!Referent unclear -- Conklin/Pearce 
*M6/8
*MM80
{8a
=1
8a
8a
8g
8f
8d
8f
=2
8a
[4a
8a]
8r}
{16a
16b-
=3
8cc
8dd
8cc
8b-
8d
8e
=4
[4.f
8f]
8r}
{16a
16a
=5
8a
8g
8f
8d
8g
8b-
=6
8a
[4a
8a]
8r}
{16cc
16cc
=7
8dd
8cc
8a
8cc
8b-
8a
=8
[4.g
8g]
8r}
{8a
=9
8b-
8dd
8ee
8ff
8a
8a
=10
8b-
[4cc
8cc]
8r}
{8a
=11
8cc
8d
8a
8cc
8d
8e
=12
[4.f
8f]
8r}
{16a
16a
=13
8a
8g
8f
8d
8f
8a
=14
8a
[4a
8a]}
8.a
16b-
=15
8dd
8cc
8a
8cc
8b-
8g
=16
[4.a
4a]}
==
*-
!!!CNT: Folksongs of Maritime Canada
!!!MRD: 1928///-1932///
!!!OCL: Helen Creighton
!!!YOR: Songs and Ballads from Nova Scotia
!!!PPR: J.M. Dent & Sons, Limited
!!!PPP: Toronto, Canada
!!!PDT: 1932///
!!!reprint: Dover Publications, 1992: ISBN 0-486-21703-5
!!!ENC1: Craig Stuart Sapp (music and bibliographic data)                       
!!!ENC2: Marcus Pearce (phrase markings and key designations)                   
!!!ENC3: Darrell Conklin (phrase markings and key designations)   
!!!END: 2002/04/10/
!!!EEV: 2004/06/05
!!!MPN: Mrs. Jane Henneberry
!!!PPG: 171
!!!EFL: 80/152
!!!ARE: Canada; Nova Scotia
!!!verses: 5
!!!VTS: 103179913
